!!!OTL: Good Night Ladies
!!!COM: unknown
!!!LYR: Christy, E.G.
!!!ODT: 1850 (19th century)
!!!YOR: The Folksong Fake Book
!!!YOY: 2000
!!!AST: Folk song
!!!YEC: Brian Luke, 2001
**kern	**harm
*k[f#]	*k[f#]
*M4/4	*M4/4
*G:	*G:
*>A	*>A
=1	=1
2b	I
2g	.
=2	=2
8d	.
[8g	.
2g]	.
4r	.
=3	=3
2b	.
2g	.
=4	=4
8a	V7
[8a	.
2a]	.
4r	.
=5	=5
2b	I
2g	V7/IV
=6	=6
8cc	IV
[8cc	.
2cc]	.
8r	.
8cc	.
=7	=7
4b	Ic
4b	.
4a	V7
4a	.
=8	=8
2.g	I;
4r	.
*>B	*>B
=9	=9
8.b	I
16a	.
8.g	.
16a	.
8b	.
8b	.
8b	.
8r	.
=10	=10
8a	V
8a	.
8a	.
8r	.
8b	I
8dd	.
8dd	.
8r	.
=11	=11
8.b	.
16a	.
8.g	.
16a	.
8b	.
8b	.
8b	.
8r	.
=12	=12
8.a	V7
16a	.
8b	.
8a	.
4g	I;
4r	.
*-	*-
